!!!COM:	Tinctoris, Johannes
!!!CDT:	~1435///-1511//
!!!OTL:	Alleluia
!!!AGN:	Motet
!!!SCT:	Tin2001
!!!SCA:	Tin2001
!!!voices:	2
**kern	**kern
*staff2	*staff1
*Ivox	*Ivox
*I"Tenor	*I"Superius
*I'T	*I'S
*clefF4	*clefG2
*k[]	*k[]
*M2/1	*M2/1
*met(C|)	*met(C|)
=1-	=1-
0D	1d
.	[1a
=2	=2
[0A	2a/]
.	4g/
.	4f/
.	[1e
=3	=3
0A]	2e/]
.	4d/
.	4e/
.	4f/
.	4e/
.	4d/
.	4c/
=4	=4
[0G	2.B/
.	4c/
.	2d/
.	[2e/
=5	=5
0G]	2e/]
.	4d/
.	4c/
.	1B
=6	=6
1F	1A
1E	2r
.	2G/
=7	=7
0G	2.B/
.	4c/
.	2d/
.	2B/
=8	=8
[0A	2.c/
.	4d/
.	2e/
.	2f/
=9	=9
0A]	2.e/
.	4d/
.	1e
=10	=10
0B	0d
=11	=11
[0c	1r
.	[1e
=12	=12
0c]	2e/]
.	2A/
.	1e
=13	=13
1B	2d/
.	2B/
1A	2.c/
.	4d/
=14	=14
0A	2e/
.	2f/
.	2e/
.	[2a/
=15	=15
0B-i	2a/]
.	1g
.	2f/
=16	=16
[0A	0a
=17	=17
0A]	1r
.	1a
=18	=18
0G	1.b
.	4a/
.	4b\
=19	=19
[0A	2cc\
.	4b\
.	4cc\
.	2a/
.	4g/
.	4f/
=20	=20
0A]	2e/
.	2.c/
.	4d/
.	[2e/
=21	=21
0A	4e/]
.	4d/
.	4c/
.	4B/
.	2.c/
.	4A/
=22	=22
*	*M2/1
*	*met(3/2)
[0F	3%4A
.	3%2r
=23	=23
0F]	3%2.a
.	3g/
.	3f/
.	3e/
=24	=24
0G	3%2d
.	3%4g
=25	=25
[0D	3%2.f
.	3g/
.	3%2a
=26	=26
0D]	3%2.f
.	3e/
.	3%2d
=27	=27
!!LO:TX:Z=12:t=in 2/3 mensuration
*	*M2/1
*	*met(2/3)
[0F	0c
=28	=28
0F]	1r
.	1d
=29	=29
1E	2.e/
.	4d/
1D	2f/
.	[2d/
=30	=30
0D	4d/]
.	4c/
.	4B/
.	4A/
.	1B
=31	=31
[0C	0c
=32	=32
0C]	1g
.	[1cc
=33	=33
0F	2cc\]
.	2b\
.	2.a/
.	4b\
=34	=34
0F	2cc\
.	2.a/
.	4g/
.	4f/
.	4e/
=35	=35
[0G	2d/
.	2.B/
.	4c/
.	[2d/
=36	=36
0G]	4d/]
.	4c/
.	4B/
.	4A/
.	1B
=37	=37
*	*M2/1
*	*met(3/2)
[0A	3%2A
.	3%2.c
.	3d/
=38	=38
0A]	3%2e
.	3%2.f
.	6e/
.	6f/
=39	=39
!!LO:TX:Z=12:t=in 4/3 mensuration
*	*M2/1
*	*met(4/3)
*	*rscale:2
1G	1.g
1E	.
.	[2e/
=40	=40
0F	4e/]
.	4d/
.	2c/
.	2d/
.	4c/
.	4d/
=41	=41
[0E	2e/
.	4d/
.	4c/
.	2B/
.	[2c/
=42	=42
0E]	4c/]
.	4d/
.	2.e/
.	4f/
.	[2g/
=43	=43
0E	4g/]
.	4f/
.	4e/
.	4d/
.	2.c#i/
.	4B/
=44	=44
0Dl	0dl
*	*rscale:1
==	==
*-	*-
!!!RDF**kern: l=long note in original notation
!!!RDF**kern: i=editorial accidental
!!!ENC:	Chris Gage 01-15-2015
!!!END:	2015/02/21/
!!!EED:	Jesse Rodin
!!!EEV:	2015/03/21/
!!!ONB:	Translated from MusicXML and edited on 2015/03/21/ by Craig Sapp
!!muse2ps: C^@{COM}^i2I150v85,150Q16
